X:195
T:B195-  How blest are shepherds
Q:1/4=120
L:1/4
M:3/4
K:Adorian
GdB|eAB|c(d/2c/2) (B/2A/4B/4)|B2G|\
dgd|BGD|G(c/2B/2) (A/2G/2)|d3||\
AFB|A3/2B/2c|d(e/2d/2) (c/2B/4c/4)|c2A|\
BeB|ABA/2G/2|(F/2G/2) (A/2G/2) (F/2E/2)|E3|\
GAB|cAd|Bcd|(e3/2 =f/2)e|\
def|gBe|AdG/2A/2|A2.G|]
